public/ic_outils.svg

<svg width="98" height="98" viewBox="0 0 98 98" fill="none" xmlns="http://www.w3.org/2000/svg">
<path d="M44.1189 61.6536H54.3766C55.4394 61.6536 56.3002 60.9542 56.3002 60.0907V58.5961C56.3002 57.7326 55.4394 57.0332 54.3766 57.0332H44.1189C43.0561 57.0332 42.1953 57.7326 42.1953 58.5961V60.1024C42.2025 60.96 43.0609 61.6536 44.1189 61.6536ZM43.4769 58.5961C43.4769 58.309 43.763 58.0745 44.1189 58.0745H54.3766C54.5473 58.0745 54.7108 58.1292 54.831 58.2269C54.9512 58.3246 55.0186 58.4574 55.0186 58.5961V60.1024C55.0186 60.2392 54.9512 60.372 54.831 60.4697C54.7108 60.5674 54.5473 60.6221 54.3766 60.6221H44.1189C43.7631 60.6221 43.4769 60.3896 43.4769 60.1024V58.5961Z" fill="black"/>
<path d="M70.9272 48.3598H62.1174L66.068 41.0667C67.013 41.5591 67.7728 42.2546 68.2609 43.0771L68.6264 43.6964C68.8332 44.0559 69.2805 44.2825 69.7662 44.2746C70.2423 44.2746 70.6751 44.0539 70.8819 43.7081L72.2356 41.4731C73.736 38.9821 72.4737 35.9735 69.4151 34.7467L62.3627 31.9275H62.3603C62.3579 31.7752 62.3242 31.6247 62.2641 31.4802C62.103 31.0875 61.7544 30.7631 61.2975 30.5795L60.7902 30.3763C59.8379 30.0012 58.6934 30.3197 58.2245 31.0894L55.3198 35.8935C54.8582 36.6652 55.2501 37.5971 56.1999 37.9761L56.7072 38.1735L56.7048 38.1754C56.9693 38.2809 57.2579 38.3376 57.5512 38.3356C57.9528 38.3356 58.3423 38.234 58.6669 38.0445L60.302 38.6951L53.7808 48.3598H50.8449V46.1814C50.8545 46.1346 50.8929 46.0935 50.9483 46.072C52.9488 45.23 54.3482 43.6729 54.7257 41.8678C55.1032 40.0606 54.418 38.2163 52.8719 36.882C52.4126 36.4873 51.7033 36.3603 51.0829 36.5596C50.477 36.755 50.0779 37.2278 50.0683 37.7572V40.3634C50.0683 40.5158 49.9168 40.6388 49.7292 40.6388H45.5285C45.341 40.6388 45.1895 40.5158 45.1895 40.3634V37.7885C45.1919 37.2493 44.7879 36.7647 44.17 36.5655C43.5641 36.3623 42.8668 36.4815 42.4123 36.8663C40.8638 38.1988 40.1761 40.043 40.5536 41.8501C40.9335 43.6553 42.3329 45.2124 44.3359 46.0525C44.3936 46.07 44.4321 46.113 44.4393 46.1619V48.3597H40.9696L39.046 44.2336C39.5581 43.7373 39.7048 43.0555 39.4307 42.446L39.3153 42.19V42.192C38.8728 41.2542 37.5864 40.7756 36.4251 41.1175L34.9823 41.5493L31.3394 33.6525C31.4501 33.5451 31.5366 33.422 31.5895 33.2872C31.7266 32.9355 31.6617 32.5526 31.4092 32.2459L30.0122 30.5423C29.6274 30.0695 28.8941 29.8781 28.2424 30.0793L26.5953 30.601V30.599C25.9437 30.8002 25.5422 31.3356 25.6263 31.8963L25.9413 33.9124C25.999 34.2817 26.2611 34.6079 26.653 34.7994C26.8863 34.9146 27.1532 34.9772 27.4273 34.9752L30.998 42.7899L29.5553 43.2275H29.5577C28.995 43.3975 28.5406 43.7413 28.2905 44.1848C28.0428 44.6283 28.0212 45.1324 28.2304 45.5876L28.3458 45.8474V45.8494C28.6247 46.4491 29.2691 46.8868 30.0434 47.0059L30.6854 48.4067H27.5427C26.4822 48.4067 25.619 49.1061 25.619 49.9697V53.2108C25.619 54.0724 26.4822 54.7738 27.5427 54.7738V66.355C27.5427 66.9079 27.8144 67.4374 28.2953 67.8281C28.7762 68.2188 29.4278 68.4376 30.1083 68.4376H68.3621C69.0426 68.4376 69.6966 68.2188 70.1775 67.8281C70.6584 67.4373 70.9277 66.9079 70.9277 66.355V54.7268C71.9905 54.7268 72.8513 54.0254 72.8513 53.1638V49.9227C72.8513 49.0591 71.99 48.3598 70.9272 48.3598ZM71.0499 41.0137L69.7683 43.1921L69.434 42.6294C68.7199 41.4142 67.5224 40.4316 66.0341 39.8416L59.4045 37.2061L61.9702 32.949L68.8305 35.6744C71.2591 36.6512 72.2521 39.0404 71.0499 41.0137ZM57.2312 37.2373L56.7311 37.0341C56.5772 36.9735 56.4594 36.8661 56.4041 36.7332C56.3488 36.6023 56.3608 36.4597 56.4353 36.3347L59.34 31.5364C59.4482 31.3587 59.6718 31.2453 59.9171 31.2453C60.0157 31.2453 60.1119 31.2629 60.2008 31.2981L60.701 31.5013C60.8525 31.5618 60.9703 31.6693 61.0256 31.8002C61.0809 31.9311 61.0713 32.0737 60.9943 32.1987L58.0896 36.997C58.0151 37.122 57.8828 37.2177 57.7217 37.2627C57.5606 37.3076 57.3851 37.2978 57.2312 37.2373ZM61.4319 39.1695L64.9449 40.5703L60.7249 48.3849H55.2427L61.4319 39.1695ZM44.9276 45.1341C42.903 44.2706 41.6598 42.5475 41.72 40.6915C41.7753 39.5252 42.3499 38.4135 43.3358 37.5656C43.4248 37.4855 43.5642 37.4621 43.6821 37.507C43.8167 37.548 43.9033 37.6516 43.9009 37.7688V40.3633C43.9033 41.09 44.6295 41.6781 45.5239 41.68H49.7246H49.7222C50.6191 41.68 51.3476 41.092 51.3524 40.3633V37.7571C51.3476 37.6477 51.4294 37.5481 51.5568 37.507C51.6915 37.4621 51.8454 37.4914 51.9415 37.5813C53.2087 38.6753 53.769 40.1914 53.4588 41.6723C53.1486 43.1551 51.9992 44.4328 50.3569 45.1244C49.8736 45.3237 49.5658 45.7261 49.5634 46.1657V48.344H45.7162V46.1618C45.7042 45.7281 45.4012 45.3334 44.9276 45.1341ZM27.0574 31.5523L28.7045 31.0307H28.7814V31.0326C28.8535 31.0307 28.9233 31.06 28.9617 31.1108L30.3468 32.8046V32.8027C30.3756 32.8515 30.3756 32.9062 30.3468 32.955C30.3251 33.0058 30.2746 33.0469 30.2121 33.0645L27.4926 33.8869C27.4301 33.9045 27.3627 33.8987 27.3074 33.8713C27.2521 33.844 27.2136 33.799 27.204 33.7463L26.889 31.7301C26.8842 31.6461 26.954 31.5699 27.0574 31.5523ZM28.6852 34.6782L30.2241 34.2093L33.7635 41.9265L32.2246 42.3895L28.6852 34.6782ZM29.5701 45.4567L29.4546 45.2008V45.2027C29.3585 45.0035 29.3657 44.7788 29.4739 44.5834C29.5845 44.3881 29.7841 44.2357 30.0317 44.1614L36.8533 42.0768C36.9639 42.0456 37.0794 42.03 37.1948 42.03C37.6035 42.0319 37.969 42.239 38.1109 42.5516L38.2263 42.8075V42.8056C38.3297 43.0009 38.3297 43.2217 38.2263 43.4152C38.1205 43.6086 37.9234 43.759 37.6805 43.8332L30.8589 45.9178V45.9159C30.6088 45.996 30.3323 45.9882 30.0894 45.8983C29.8466 45.8084 29.659 45.6424 29.5701 45.4372L29.5701 45.4567ZM31.3903 46.8692L37.9952 44.8687L39.6302 48.3599H32.0823L31.3903 46.8692ZM69.6459 66.3552C69.6459 66.6306 69.5088 66.8963 69.2684 67.0917C69.0279 67.2871 68.7033 67.3965 68.3619 67.3965H30.1345C29.4252 67.3965 28.8505 66.9296 28.8505 66.3552V54.727H69.6454L69.6459 66.3552ZM71.5695 53.164C71.5695 53.3007 71.5022 53.4336 71.382 53.5313C71.2617 53.629 71.0982 53.6837 70.9275 53.6837H27.5689C27.2154 53.6837 26.9269 53.4512 26.9269 53.164V49.9228C26.9269 49.6356 27.2154 49.4012 27.5689 49.4012H70.9275C71.0982 49.4012 71.2617 49.4559 71.382 49.5536C71.5022 49.6512 71.5695 49.7841 71.5695 49.9228V53.164Z" fill="black"/>
</svg>

<svg xmlns="http://www.w3.org/2000/svg" width="98" height="98" fill="none"><path fill="#000" d="M44.119 61.654h10.258c1.062 0 1.923-.7 1.923-1.563v-1.495c0-.863-.86-1.563-1.923-1.563H44.119c-1.063 0-1.924.7-1.924 1.563v1.506c.008.858.866 1.552 1.924 1.552m-.642-3.058c0-.287.286-.521.642-.521h10.258c.17 0 .334.054.454.152s.188.23.188.37v1.505a.48.48 0 0 1-.188.368.72.72 0 0 1-.454.152H44.119c-.356 0-.642-.232-.642-.52z"/><path fill="#000" d="M70.927 48.36h-8.81l3.951-7.293c.945.492 1.705 1.188 2.193 2.01l.365.62c.207.359.654.585 1.14.578.476 0 .91-.221 1.116-.567l1.354-2.235c1.5-2.49.238-5.5-2.82-6.726l-7.053-2.82h-.003a1.2 1.2 0 0 0-.096-.447c-.161-.393-.51-.717-.967-.9l-.507-.204c-.952-.375-2.097-.056-2.565.713l-2.905 4.805c-.462.771-.07 1.703.88 2.082l.507.197-.002.002c.264.106.553.163.846.16.402 0 .791-.101 1.116-.29l1.635.65-6.521 9.665h-2.936v-2.18c.01-.046.048-.087.103-.109 2-.842 3.4-2.4 3.778-4.204.377-1.807-.308-3.652-1.854-4.986-.46-.395-1.169-.522-1.79-.322-.605.195-1.004.668-1.014 1.197v2.606c0 .153-.151.276-.339.276h-4.2c-.188 0-.34-.123-.34-.276v-2.575c.003-.539-.401-1.023-1.019-1.222-.606-.204-1.303-.085-1.758.3-1.548 1.333-2.236 3.177-1.858 4.984.38 1.805 1.779 3.362 3.782 4.203.058.017.096.06.103.109v2.198h-3.47l-1.923-4.126c.512-.497.659-1.178.385-1.788l-.116-.256v.002c-.442-.938-1.729-1.416-2.89-1.075l-1.443.432-3.643-7.896c.111-.108.198-.231.25-.366a1.02 1.02 0 0 0-.18-1.041l-1.397-1.704c-.385-.473-1.118-.664-1.77-.463l-1.647.522v-.002c-.651.201-1.053.737-.969 1.297l.315 2.016c.058.37.32.696.712.887.233.116.5.178.774.176l3.571 7.815-1.443.438h.003c-.563.17-1.017.513-1.267.957a1.52 1.52 0 0 0-.06 1.403l.115.26v.001c.279.6.923 1.038 1.697 1.157l.642 1.4h-3.142c-1.06 0-1.924.7-1.924 1.564v3.24c0 .862.863 1.564 1.924 1.564v11.581c0 .553.271 1.082.752 1.473.481.39 1.133.61 1.813.61h38.254c.68 0 1.335-.22 1.816-.61.48-.39.75-.92.75-1.473V54.727c1.063 0 1.923-.702 1.923-1.563v-3.241c0-.864-.861-1.563-1.924-1.563m.123-7.346-1.282 2.178-.334-.563c-.714-1.215-1.912-2.197-3.4-2.787l-6.63-2.636 2.566-4.257 6.86 2.725c2.43.977 3.422 3.366 2.22 5.34m-13.82-3.777-.5-.203a.57.57 0 0 1-.327-.3.43.43 0 0 1 .031-.4l2.905-4.798c.108-.177.332-.29.577-.29a.8.8 0 0 1 .284.052l.5.203c.151.06.27.168.325.3a.43.43 0 0 1-.032.398l-2.904 4.798a.62.62 0 0 1-.368.266.8.8 0 0 1-.49-.026m4.2 1.932 3.514 1.401-4.22 7.815h-5.482zm-16.503 5.965c-2.025-.863-3.268-2.587-3.208-4.443.055-1.166.63-2.278 1.616-3.125a.35.35 0 0 1 .346-.059c.135.041.221.145.219.262v2.594c.002.727.728 1.315 1.623 1.317h4.2-.002c.897 0 1.626-.588 1.63-1.317v-2.606c-.004-.11.077-.209.205-.25a.39.39 0 0 1 .384.074c1.268 1.094 1.828 2.61 1.518 4.091-.31 1.483-1.46 2.76-3.102 3.452-.483.2-.791.602-.794 1.042v2.178h-3.847v-2.182c-.012-.434-.315-.829-.788-1.028m-17.87-13.582 1.646-.521h.077v.002a.22.22 0 0 1 .18.078l1.386 1.694v-.002a.14.14 0 0 1 0 .152.2.2 0 0 1-.135.11l-2.72.822a.26.26 0 0 1-.185-.016.18.18 0 0 1-.103-.125l-.315-2.016c-.005-.084.065-.16.168-.178m1.627 3.126 1.54-.469 3.538 7.717-1.538.463zm.885 10.779-.115-.256v.002a.67.67 0 0 1 .019-.62.94.94 0 0 1 .558-.422l6.821-2.084a1.3 1.3 0 0 1 .342-.047c.408.002.774.209.916.522l.115.255v-.001a.64.64 0 0 1 0 .61.92.92 0 0 1-.545.417l-6.822 2.085v-.002c-.25.08-.527.072-.77-.018a.9.9 0 0 1-.519-.46zm1.82 1.412 6.605-2 1.635 3.49h-7.548zm38.256 19.486c0 .276-.137.541-.378.737-.24.195-.565.305-.906.305H30.135c-.71 0-1.285-.467-1.285-1.042V54.727h40.795zm1.924-13.191c0 .137-.068.27-.188.367a.73.73 0 0 1-.455.153H27.57c-.354 0-.642-.233-.642-.52v-3.241c0-.287.288-.522.642-.522h43.358c.171 0 .335.055.455.153.12.097.188.23.188.369z"/></svg>
